3D/Production/Exports/Lighting/lax_grade_warm_miniature_32.cube
TITLE "Lax Attack warm miniature"
LUT_3D_SIZE 32
DOMAIN_MIN 0 0 0
DOMAIN_MAX 1 1 1
0.018000 0.010000 0.000000
0.050422 0.009055 0.000000
0.083350 0.008095 0.000000
0.116750 0.007121 0.000000
0.150586 0.006135 0.000000
0.184823 0.005137 0.000000
0.219427 0.004128 0.000000
0.254363 0.003110 0.000000
0.289596 0.002083 0.000000
0.325091 0.001048 0.000000
0.360812 0.000007 0.000000
0.396726 0.000000 0.000000
0.432796 0.000000 0.000000
0.468989 0.000000 0.000000
0.505270 0.000000 0.000000
0.541602 0.000000 0.000000
0.577952 0.000000 0.000000
0.614285 0.000000 0.000000
0.650565 0.000000 0.000000
0.686758 0.000000 0.000000
0.722829 0.000000 0.000000
0.758742 0.000000 0.000000
0.794464 0.000000 0.000000
0.829958 0.000000 0.000000
0.865191 0.000000 0.000000
0.900127 0.000000 0.000000
0.934731 0.000000 0.000000
0.968969 0.000000 0.000000
1.000000 0.000000 0.000000
1.000000 0.000000 0.000000
1.000000 0.000000 0.000000
1.000000 0.000000 0.000000
0.014331 0.040333 0.000000
0.046753 0.039388 0.000000
0.079681 0.038428 0.000000
0.113081 0.037454 0.000000
0.146917 0.036468 0.000000
0.181155 0.035470 0.000000
0.215759 0.034461 0.000000
0.250695 0.033443 0.000000
0.285927 0.032416 0.000000
0.321422 0.031381 0.000000
0.357144 0.030340 0.000000
0.393057 0.029293 0.000000
0.429128 0.028241 0.000000
0.465321 0.027186 0.000000
0.501601 0.026129 0.000000
0.537934 0.025070 0.000000
0.574284 0.024010 0.000000
0.610616 0.022951 0.000000
0.646896 0.021893 0.000000
0.683089 0.020838 0.000000
0.719160 0.019787 0.000000
0.755074 0.018740 0.000000
0.790795 0.017699 0.000000
0.826290 0.016664 0.000000
0.861522 0.015637 0.000000
0.896458 0.014618 0.000000
0.931062 0.013610 0.000000
0.965300 0.012612 0.000000
0.999136 0.011625 0.000000
1.000000 0.010652 0.000000
1.000000 0.009692 0.000000
1.000000 0.008747 0.000000
0.010606 0.071140 0.000000
0.043027 0.070194 0.000000
0.075956 0.069235 0.000000
0.109355 0.068261 0.000000
0.143191 0.067275 0.000000
0.177429 0.066277 0.000000
0.212033 0.065268 0.000000
0.246969 0.064249 0.000000
0.282202 0.063222 0.000000
0.317696 0.062188 0.000000
0.353418 0.061146 0.000000
0.389331 0.060100 0.000000
0.425402 0.059048 0.000000
0.461595 0.057993 0.000000
0.497875 0.056935 0.000000
0.534208 0.055876 0.000000
0.570558 0.054817 0.000000
0.606890 0.053758 0.000000
0.643171 0.052700 0.000000
0.679363 0.051645 0.000000
0.715434 0.050593 0.000000
0.751348 0.049547 0.000000
0.787069 0.048505 0.000000
0.822564 0.047471 0.000000
0.857797 0.046443 0.000000
0.892732 0.045425 0.000000
0.927337 0.044416 0.000000
0.961574 0.043418 0.000000
0.995410 0.042432 0.000000
1.000000 0.041458 0.000000
1.000000 0.040498 0.000000
1.000000 0.039553 0.000000
0.006826 0.102387 0.000000
0.039248 0.101442 0.000000
0.072176 0.100482 0.000000
0.105576 0.099509 0.000000
0.139412 0.098522 0.000000
0.173650 0.097524 0.000000
0.208254 0.096516 0.000000
0.243190 0.095497 0.000000
0.278422 0.094470 0.000000
0.313917 0.093435 0.000000
0.349638 0.092394 0.000000
0.385552 0.091347 0.000000
0.421623 0.090296 0.000000
0.457816 0.089241 0.000000
0.494096 0.088183 0.000000
0.530428 0.087124 0.000000
0.566779 0.086064 0.000000
0.603111 0.085005 0.000000
0.639391 0.083948 0.000000
0.675584 0.082893 0.000000
0.711655 0.081841 0.000000
0.747569 0.080794 0.000000
0.783290 0.079753 0.000000
0.818785 0.078718 0.000000
0.854017 0.077691 0.000000
0.888953 0.076673 0.000000
0.923557 0.075664 0.000000
0.957795 0.074666 0.000000
0.991631 0.073680 0.000000
1.000000 0.072706 0.000000
1.000000 0.071746 0.000000
1.000000 0.070801 0.000000
0.002998 0.134043 0.000000
0.035420 0.133098 0.000000
0.068348 0.132138 0.000000
0.101747 0.131165 0.000000
0.135583 0.130178 0.000000
0.169821 0.129180 0.000000
0.204425 0.128172 0.000000
0.239361 0.127153 0.000000
0.274594 0.126126 0.000000
0.310088 0.125091 0.000000
0.345810 0.124050 0.000000
0.381723 0.123003 0.000000
0.417794 0.121952 0.000000
0.453987 0.120897 0.000000
0.490267 0.119839 0.000000
0.526600 0.118780 0.000000
0.562950 0.117720 0.000000
0.599282 0.116661 0.000000
0.635563 0.115604 0.000000
0.671756 0.114549 0.000000
0.707826 0.113497 0.000000
0.743740 0.112450 0.000000
0.779461 0.111409 0.000000
0.814956 0.110374 0.000000
0.850189 0.109347 0.000000
0.885125 0.108329 0.000000
0.919729 0.107320 0.000000
0.953966 0.106322 0.000000
0.987802 0.105336 0.000000
1.000000 0.104362 0.000000
1.000000 0.103402 0.000000
1.000000 0.102457 0.000000
0.000000 0.166075 0.000000
0.031546 0.165130 0.000000
0.064474 0.164170 0.000000
0.097873 0.163196 0.000000
0.131709 0.162210 0.000000
0.165947 0.161212 0.000000
0.200551 0.160203 0.000000
0.235487 0.159185 0.000000
0.270720 0.158158 0.000000
0.306214 0.157123 0.000000
0.341936 0.156082 0.000000
0.377849 0.155035 0.000000
0.413920 0.153983 0.000000
0.450113 0.152928 0.000000
0.486393 0.151871 0.000000
0.522726 0.150812 0.000000
0.559076 0.149752 0.000000
0.595408 0.148693 0.000000
0.631689 0.147635 0.000000
0.667882 0.146580 0.000000
0.703952 0.145529 0.000000
0.739866 0.144482 0.000000
0.775587 0.143441 0.000000
0.811082 0.142406 0.000000
0.846315 0.141379 0.000000
0.881251 0.140360 0.000000
0.915855 0.139352 0.000000
0.950092 0.138354 0.000000
0.983928 0.137367 0.000000
1.000000 0.136394 0.000000
1.000000 0.135434 0.000000
1.000000 0.134489 0.000000
0.000000 0.198450 0.000000
0.027630 0.197504 0.000000
0.060558 0.196545 0.000000
0.093958 0.195571 0.000000
0.127794 0.194585 0.000000
0.162031 0.193587 0.000000
0.196636 0.192578 0.000000
0.231572 0.191559 0.000000
0.266804 0.190532 0.000000
0.302299 0.189498 0.000000
0.338020 0.188456 0.000000
0.373934 0.187409 0.000000
0.410005 0.186358 0.000000
0.446198 0.185303 0.000000
0.482478 0.184245 0.000000
0.518810 0.183186 0.000000
0.555160 0.182127 0.000000
0.591493 0.181068 0.000000
0.627773 0.180010 0.000000
0.663966 0.178955 0.000000
0.700037 0.177903 0.000000
0.735950 0.176856 0.000000
0.771672 0.175815 0.000000
0.807166 0.174780 0.000000
0.842399 0.173753 0.000000
0.877335 0.172735 0.000000
0.911939 0.171726 0.000000
0.946177 0.170728 0.000000
0.980013 0.169742 0.000000
1.000000 0.168768 0.000000
1.000000 0.167808 0.000000
1.000000 0.166863 0.000000
0.000000 0.231135 0.000000
0.023677 0.230189 0.000000
0.056605 0.229230 0.000000
0.090005 0.228256 0.000000
0.123841 0.227270 0.000000
0.158078 0.226272 0.000000
0.192683 0.225263 0.000000
0.227618 0.224244 0.000000
0.262851 0.223217 0.000000
0.298346 0.222183 0.000000
0.334067 0.221141 0.000000
0.369981 0.220095 0.000000
0.406052 0.219043 0.000000
0.442244 0.217988 0.000000
0.478525 0.216930 0.000000
0.514857 0.215871 0.000000
0.551207 0.214812 0.000000
0.587540 0.213753 0.000000
0.623820 0.212695 0.000000
0.660013 0.211640 0.000000
0.696084 0.210588 0.000000
0.731997 0.209542 0.000000
0.767719 0.208500 0.000000
0.803213 0.207466 0.000000
0.838446 0.206438 0.000000
0.873382 0.205420 0.000000
0.907986 0.204411 0.000000
0.942224 0.203413 0.000000
0.976060 0.202427 0.000000
1.000000 0.201619 0.000000
1.000000 0.200843 0.000000
1.000000 0.200080 0.000000
0.000000 0.264097 0.000000
0.019690 0.263152 0.000000
0.052619 0.262192 0.000000
0.086018 0.261219 0.000000
0.119854 0.260232 0.000000
0.154092 0.259234 0.000000
0.188696 0.258226 0.000000
0.223632 0.257207 0.000000
0.258865 0.256180 0.000000
0.294359 0.255145 0.000000
0.330081 0.254104 0.000000
0.365994 0.253057 0.000000
0.402065 0.252006 0.000000
0.438258 0.250951 0.000000
0.474538 0.249893 0.000000
0.510871 0.248834 0.000000
0.547221 0.247774 0.000000
0.583553 0.246715 0.000000
0.619833 0.245658 0.000000
0.656026 0.244603 0.000000
0.692097 0.243551 0.000000
0.728011 0.242504 0.000000
0.763732 0.241463 0.000000
0.799227 0.240428 0.000000
0.834460 0.239401 0.000000
0.869516 0.238450 0.000000
0.904469 0.237635 0.000000
0.939052 0.236829 0.000000
0.973230 0.236032 0.000000
1.000000 0.235246 0.000000
1.000000 0.234471 0.000000
1.000000 0.233707 0.000000
0.000000 0.297305 0.000000
0.015674 0.296360 0.000000
0.048602 0.295400 0.000000
0.082002 0.294426 0.000000
0.115838 0.293440 0.000000
0.150075 0.292442 0.000000
0.184680 0.291433 0.000000
0.219616 0.290415 0.000000
0.254848 0.289388 0.000000
0.290343 0.288353 0.000000
0.326064 0.287312 0.000000
0.361978 0.286265 0.000000
0.398049 0.285213 0.000000
0.434242 0.284158 0.000000
0.470522 0.283101 0.000000
0.506854 0.282042 0.000000
0.543204 0.280982 0.000000
0.579537 0.279923 0.000000
0.615817 0.278865 0.000000
0.652010 0.277810 0.000000
0.688081 0.276759 0.000000
0.723994 0.275712 0.000000
0.759975 0.274815 0.000000
0.795828 0.273979 0.000000
0.831416 0.273149 0.000000
0.866705 0.272327 0.000000
0.901658 0.271512 0.000000
0.936241 0.270706 0.000000
0.970419 0.269909 0.000000
1.000000 0.269123 0.000000
1.000000 0.268348 0.000000
1.000000 0.267584 0.000000
0.000000 0.330725 0.000000
0.011632 0.329780 0.000000
0.044560 0.328820 0.000000
0.077960 0.327846 0.000000
0.111796 0.326860 0.000000
0.146034 0.325862 0.000000
0.180638 0.324853 0.000000
0.215574 0.323835 0.000000
0.250806 0.322808 0.000000
0.286301 0.321773 0.000000
0.322022 0.320732 0.000000
0.357936 0.319685 0.000000
0.394007 0.318633 0.000000
0.430200 0.317578 0.000000
0.466480 0.316521 0.000000
0.502812 0.315462 0.000000
0.539162 0.314402 0.000000
0.575495 0.313343 0.000000
0.611795 0.312296 0.000000
0.648353 0.311444 0.000000
0.684788 0.310595 0.000000
0.721064 0.309749 0.000000
0.757146 0.308908 0.000000
0.792999 0.308073 0.000000
0.828587 0.307243 0.000000
0.863875 0.306420 0.000000
0.898829 0.305606 0.000000
0.933412 0.304800 0.000000
0.967589 0.304003 0.000000
1.000000 0.303217 0.000000
1.000000 0.302441 0.000000
1.000000 0.301678 0.000000
0.000000 0.364325 0.000000
0.007569 0.363380 0.000000
0.040497 0.362420 0.000000
0.073896 0.361446 0.000000
0.107732 0.360460 0.000000
0.141970 0.359462 0.000000
0.176574 0.358453 0.000000
0.211510 0.357435 0.000000
0.246743 0.356408 0.000000
0.282237 0.355373 0.000000
0.317959 0.354332 0.000000
0.353872 0.353285 0.000000
0.389943 0.352233 0.000000
0.426136 0.351178 0.000000
0.462416 0.350120 0.000000
0.498888 0.349139 0.000000
0.535605 0.348283 0.000000
0.572304 0.347428 0.000000
0.608951 0.346573 0.000000
0.645509 0.345721 0.000000
0.681943 0.344872 0.000000
0.718219 0.344026 0.000000
0.754301 0.343185 0.000000
0.790154 0.342350 0.000000
0.825742 0.341520 0.000000
0.861031 0.340697 0.000000
0.895984 0.339883 0.000000
0.930567 0.339077 0.000000
0.964745 0.338280 0.000000
0.998481 0.337494 0.000000
1.000000 0.336718 0.000000
1.000000 0.335955 0.000000
0.000000 0.398071 0.000000
0.003487 0.397126 0.000000
0.036415 0.396166 0.000000
0.069815 0.395193 0.000000
0.103651 0.394206 0.000000
0.137888 0.393208 0.000000
0.172493 0.392200 0.000000
0.207428 0.391181 0.000000
0.242661 0.390154 0.000000
0.278156 0.389120 0.000000
0.313877 0.388078 0.000000
0.349791 0.387031 0.000000
0.386128 0.386128 0.000000
0.422686 0.385275 0.000000
0.459332 0.384421 0.000000
0.496031 0.383566 0.000000
0.532748 0.382710 0.000000
0.569447 0.381854 0.000000
0.606094 0.381000 0.000000
0.642652 0.380148 0.000000
0.679086 0.379299 0.000000
0.715362 0.378453 0.000000
0.751444 0.377612 0.000000
0.787297 0.376777 0.000000
0.822885 0.375947 0.000000
0.858174 0.375124 0.000000
0.893127 0.374310 0.000000
0.927710 0.373504 0.000000
0.961888 0.372707 0.000000
0.995624 0.371921 0.000000
1.000000 0.371145 0.000000
1.000000 0.370382 0.000000
0.000000 0.431932 0.000000
0.000000 0.430987 0.000000
0.032320 0.430027 0.000000
0.065720 0.429054 0.000000
0.099556 0.428067 0.000000
0.133793 0.427069 0.000000
0.168397 0.426061 0.000000
0.203333 0.425042 0.000000
0.238616 0.424043 0.000000
0.274468 0.423207 0.000000
0.310550 0.422366 0.000000
0.346826 0.421520 0.000000
0.383261 0.420671 0.000000
0.419819 0.419819 0.000000
0.456465 0.418965 0.000000
0.493165 0.418109 0.000000
0.529881 0.417254 0.000000
0.566581 0.416398 0.000000
0.603227 0.415544 0.000000
0.639785 0.414692 0.000000
0.676220 0.413842 0.000000
0.712496 0.412997 0.000000
0.748578 0.412156 0.000000
0.784430 0.411320 0.000000
0.820019 0.410491 0.000000
0.855307 0.409668 0.000000
0.890260 0.408853 0.000000
0.924843 0.408047 0.000000
0.959021 0.407250 0.000000
0.992757 0.406464 0.000000
1.000000 0.405689 0.000000
1.000000 0.404925 0.000000
0.000000 0.465875 0.000000
0.000000 0.464930 0.000000
0.028215 0.463970 0.000000
0.061614 0.462997 0.000000
0.095450 0.462010 0.000000
0.129912 0.461137 0.000000
0.164865 0.460322 0.000000
0.200154 0.459499 0.000000
0.235742 0.458670 0.000000
0.271595 0.457834 0.000000
0.307677 0.456993 0.000000
0.343953 0.456147 0.000000
0.380387 0.455298 0.000000
0.416945 0.454446 0.000000
0.453592 0.453592 0.000000
0.490291 0.452736 0.000000
0.527008 0.451880 0.000000
0.563707 0.451025 0.000000
0.600353 0.450171 0.000000
0.636911 0.449319 0.000000
0.673346 0.448469 0.000000
0.709622 0.447624 0.000000
0.745704 0.446783 0.000000
0.781557 0.445947 0.000000
0.817145 0.445117 0.000000
0.852433 0.444295 0.000000
0.887387 0.443480 0.000000
0.921970 0.442674 0.000000
0.956147 0.441877 0.000000
0.989884 0.441091 0.000000
1.000000 0.440316 0.000000
1.000000 0.439552 0.000000
0.000000 0.499867 0.000000
0.000000 0.498978 0.000000
0.024537 0.498203 0.000000
0.058274 0.497416 0.000000
0.092451 0.496620 0.000000
0.127034 0.495813 0.000000
0.161987 0.494999 0.000000
0.197276 0.494176 0.000000
0.232864 0.493347 0.000000
0.268717 0.492511 0.000000
0.304799 0.491670 0.000000
0.341075 0.490824 0.000000
0.377510 0.489975 0.000000
0.414068 0.489123 0.000000
0.450714 0.488269 0.000000
0.487413 0.487413 0.000000
0.524130 0.486557 0.000000
0.560829 0.485702 0.000000
0.597475 0.484848 0.000000
0.634034 0.483995 0.000000
0.670468 0.483146 0.000000
0.706744 0.482301 0.000000
0.742826 0.481460 0.000000
0.778679 0.480624 0.000000
0.814267 0.479794 0.000000
0.849556 0.478972 0.000000
0.884509 0.478157 0.000000
0.919092 0.477351 0.000000
0.953270 0.476554 0.000000
0.987006 0.475768 0.000000
1.000000 0.475042 0.000000
1.000000 0.474448 0.000000
0.000000 0.534435 0.000000
0.000000 0.533671 0.000000
0.021658 0.532896 0.000000
0.055394 0.532110 0.000000
0.089572 0.531313 0.000000
0.124155 0.530507 0.000000
0.159108 0.529692 0.000000
0.194397 0.528870 0.000000
0.229985 0.528040 0.000000
0.265838 0.527204 0.000000
0.301920 0.526363 0.000000
0.338196 0.525518 0.000000
0.374630 0.524669 0.000000
0.411189 0.523816 0.000000
0.447835 0.522962 0.000000
0.484534 0.522107 0.000000
0.521251 0.521251 0.000000
0.557950 0.520395 0.000000
0.594596 0.519541 0.000000
0.631154 0.518689 0.000000
0.667589 0.517840 0.000000
0.703865 0.516994 0.000000
0.739947 0.516153 0.000000
0.775800 0.515317 0.000000
0.811388 0.514488 0.000000
0.846677 0.513665 0.000000
0.881630 0.512851 0.000000
0.916625 0.512209 0.000000
0.951245 0.511590 0.000000
0.985419 0.510978 0.000000
1.000000 0.510375 0.000000
1.000000 0.509781 0.000000
0.000000 0.569112 0.000000
0.000000 0.568348 0.000000
0.018780 0.567573 0.000000
0.052517 0.566787 0.000000
0.086694 0.565990 0.000000
0.121277 0.565184 0.000000
0.156231 0.564369 0.000000
0.191519 0.563547 0.000000
0.227107 0.562717 0.000000
0.262960 0.561881 0.000000
0.299042 0.561040 0.000000
0.335318 0.560195 0.000000
0.371753 0.559345 0.000000
0.408311 0.558493 0.000000
0.444957 0.557639 0.000000
0.481656 0.556784 0.000000
0.518373 0.555928 0.000000
0.555072 0.555072 0.000000
0.591719 0.554218 0.000000
0.628277 0.553366 0.000000
0.664711 0.552517 0.000000
0.700987 0.551671 0.000000
0.737069 0.550830 0.000000
0.773115 0.550071 0.000000
0.809164 0.549426 0.000000
0.844909 0.548786 0.000000
0.880315 0.548153 0.000000
0.915346 0.547526 0.000000
0.949966 0.546906 0.000000
0.984140 0.546294 0.000000
1.000000 0.545691 0.000000
1.000000 0.545098 0.000000
0.000000 0.603739 0.000000
0.000000 0.602975 0.000000
0.015907 0.602200 0.000000
0.049643 0.601414 0.000000
0.083821 0.600617 0.000000
0.118404 0.599811 0.000000
0.153357 0.598996 0.000000
0.188645 0.598173 0.000000
0.224234 0.597344 0.000000
0.260086 0.596508 0.000000
0.296168 0.595667 0.000000
0.332444 0.594822 0.000000
0.368879 0.593972 0.000000
0.405437 0.593120 0.000000
0.442083 0.592266 0.000000
0.478783 0.591410 0.000000
0.515499 0.590555 0.000000
0.552199 0.589699 0.000000
0.588845 0.588845 0.000000
0.625403 0.587993 0.000000
0.662226 0.587299 0.000000
0.698971 0.586641 0.000000
0.735521 0.585987 0.000000
0.771838 0.585337 0.000000
0.807887 0.584692 0.000000
0.843632 0.584052 0.000000
0.879038 0.583418 0.000000
0.914069 0.582791 0.000000
0.948689 0.582172 0.000000
0.982862 0.581560 0.000000
1.000000 0.580957 0.000000
1.000000 0.580363 0.000000
0.000000 0.638282 0.000000
0.000000 0.637519 0.000000
0.013040 0.636743 0.000000
0.046776 0.635957 0.000000
0.080954 0.635160 0.000000
0.115537 0.634354 0.000000
0.150490 0.633540 0.000000
0.185779 0.632717 0.000000
0.221367 0.631887 0.000000
0.257220 0.631052 0.000000
0.293302 0.630211 0.000000
0.329578 0.629365 0.000000
0.366012 0.628516 0.000000
0.402570 0.627664 0.000000
0.439217 0.626810 0.000000
0.475916 0.625954 0.000000
0.512718 0.625132 0.000000
0.549893 0.624467 0.000000
0.587013 0.623803 0.000000
0.624045 0.623140 0.000000
0.660951 0.622479 0.000000
0.697697 0.621822 0.000000
0.734246 0.621167 0.000000
0.770563 0.620517 0.000000
0.806613 0.619872 0.000000
0.842358 0.619232 0.000000
0.877764 0.618599 0.000000
0.912795 0.617972 0.000000
0.947415 0.617352 0.000000
0.981588 0.616741 0.000000
1.000000 0.616138 0.000000
1.000000 0.615544 0.000000
0.000000 0.672709 0.000000
0.000000 0.671946 0.000000
0.010183 0.671170 0.000000
0.043919 0.670384 0.000000
0.078097 0.669587 0.000000
0.112680 0.668781 0.000000
0.147633 0.667967 0.000000
0.182922 0.667144 0.000000
0.218510 0.666314 0.000000
0.254363 0.665479 0.000000
0.290445 0.664638 0.000000
0.326721 0.663792 0.000000
0.363155 0.662943 0.000000
0.399961 0.662190 0.000000
0.437082 0.661525 0.000000
0.474256 0.660860 0.000000
0.511448 0.660194 0.000000
0.548623 0.659529 0.000000
0.585744 0.658864 0.000000
0.622775 0.658202 0.000000
0.659682 0.657541 0.000000
0.696427 0.656883 0.000000
0.732977 0.656229 0.000000
0.769294 0.655579 0.000000
0.805343 0.654934 0.000000
0.841088 0.654294 0.000000
0.876494 0.653661 0.000000
0.911525 0.653034 0.000000
0.946145 0.652414 0.000000
0.980319 0.651802 0.000000
1.000000 0.651199 0.000000
1.000000 0.650606 0.000000
0.000000 0.706986 0.000000
0.000000 0.706223 0.000000
0.007338 0.705447 0.000000
0.041075 0.704661 0.000000
0.075252 0.703864 0.000000
0.109835 0.703058 0.000000
0.144789 0.702244 0.000000
0.180077 0.701421 0.000000
0.215665 0.700591 0.000000
0.251518 0.699756 0.000000
0.288013 0.699080 0.000000
0.324758 0.698422 0.000000
0.361665 0.697761 0.000000
0.398696 0.697099 0.000000
0.435817 0.696434 0.000000
0.472992 0.695769 0.000000
0.510184 0.695103 0.000000
0.547359 0.694438 0.000000
0.584479 0.693774 0.000000
0.621511 0.693111 0.000000
0.658417 0.692450 0.000000
0.695163 0.691793 0.000000
0.731712 0.691138 0.000000
0.768029 0.690488 0.000000
0.804078 0.689843 0.000000
0.839824 0.689203 0.000000
0.875230 0.688570 0.000000
0.910261 0.687943 0.000000
0.944881 0.687323 0.000000
0.979054 0.686711 0.000000
1.000000 0.686108 0.000000
1.000000 0.685515 0.000000
0.000000 0.741080 0.000000
0.000000 0.740316 0.000000
0.004509 0.739541 0.000000
0.038245 0.738755 0.000000
0.072423 0.737958 0.000000
0.107006 0.737152 0.000000
0.142094 0.736391 0.000000
0.177840 0.735751 0.000000
0.213889 0.735106 0.000000
0.250206 0.734456 0.000000
0.286755 0.733802 0.000000
0.323501 0.733144 0.000000
0.360407 0.732484 0.000000
0.397439 0.731821 0.000000
0.434560 0.731157 0.000000
0.471734 0.730491 0.000000
0.508927 0.729826 0.000000
0.546101 0.729160 0.000000
0.583222 0.728496 0.000000
0.620253 0.727833 0.000000
0.657160 0.727173 0.000000
0.693906 0.726515 0.000000
0.730455 0.725861 0.000000
0.766772 0.725211 0.000000
0.802821 0.724566 0.000000
0.838566 0.723926 0.000000
0.873972 0.723292 0.000000
0.909003 0.722665 0.000000
0.943623 0.722046 0.000000
0.977797 0.721434 0.000000
1.000000 0.720831 0.000000
1.000000 0.720237 0.000000
0.000000 0.774957 0.000000
0.000000 0.774193 0.000000
0.001698 0.773418 0.000000
0.035788 0.772773 0.000000
0.070408 0.772154 0.000000
0.105439 0.771527 0.000000
0.140845 0.770893 0.000000
0.176590 0.770253 0.000000
0.212639 0.769608 0.000000
0.248956 0.768958 0.000000
0.285506 0.768304 0.000000
0.322251 0.767646 0.000000
0.359158 0.766986 0.000000
0.396189 0.766323 0.000000
0.433310 0.765659 0.000000
0.470485 0.764993 0.000000
0.507677 0.764328 0.000000
0.544852 0.763662 0.000000
0.581972 0.762998 0.000000
0.619004 0.762335 0.000000
0.655910 0.761674 0.000000
0.692656 0.761017 0.000000
0.729205 0.760363 0.000000
0.765522 0.759713 0.000000
0.801571 0.759067 0.000000
0.837317 0.758428 0.000000
0.872723 0.757794 0.000000
0.907754 0.757167 0.000000
0.942374 0.756547 0.000000
0.976547 0.755936 0.000000
1.000000 0.755333 0.000000
1.000000 0.754739 0.000000
0.000000 0.808829 0.000000
0.000000 0.808235 0.000000
0.000374 0.807632 0.000000
0.034548 0.807021 0.000000
0.069168 0.806401 0.000000
0.104199 0.805774 0.000000
0.139605 0.805140 0.000000
0.175350 0.804501 0.000000
0.211399 0.803855 0.000000
0.247716 0.803205 0.000000
0.284265 0.802551 0.000000
0.321011 0.801894 0.000000
0.357918 0.801233 0.000000
0.394949 0.800570 0.000000
0.432070 0.799906 0.000000
0.469244 0.799240 0.000000
0.506437 0.798575 0.000000
0.543611 0.797909 0.000000
0.580732 0.797245 0.000000
0.617764 0.796582 0.000000
0.654670 0.795922 0.000000
0.691416 0.795264 0.000000
0.727965 0.794610 0.000000
0.764282 0.793960 0.000000
0.800331 0.793315 0.000000
0.836077 0.792675 0.000000
0.871483 0.792041 0.000000
0.906514 0.791414 0.000000
0.941134 0.790795 0.000000
0.975307 0.790183 0.000000
1.000000 0.789580 0.000000
1.000000 0.788986 0.000000
0.000000 0.842788 0.000000
0.000000 0.842194 0.000000
0.000000 0.841591 0.000000
0.033318 0.840979 0.000000
0.067938 0.840360 0.000000
0.102969 0.839733 0.000000
0.138375 0.839099 0.000000
0.174120 0.838459 0.000000
0.210169 0.837814 0.000000
0.246486 0.837164 0.000000
0.283036 0.836510 0.000000
0.319781 0.835852 0.000000
0.356688 0.835192 0.000000
0.393719 0.834529 0.000000
0.430840 0.833865 0.000000
0.468015 0.833199 0.000000
0.505207 0.832534 0.000000
0.542381 0.831868 0.000000
0.579502 0.831204 0.000000
0.616534 0.830541 0.000000
0.653440 0.829880 0.000000
0.690186 0.829223 0.000000
0.726735 0.828569 0.000000
0.763052 0.827919 0.000000
0.799101 0.827273 0.000000
0.834847 0.826634 0.000000
0.870253 0.826000 0.000000
0.905284 0.825373 0.000000
0.939904 0.824753 0.000000
0.974077 0.824142 0.000000
1.000000 0.823539 0.000000
1.000000 0.822945 0.000000
0.000000 0.876424 0.000000
0.000000 0.875830 0.000000
0.000000 0.875227 0.000000
0.032100 0.874616 0.000000
0.066720 0.873996 0.000000
0.101751 0.873369 0.000000
0.137157 0.872735 0.000000
0.172902 0.872096 0.000000
0.208951 0.871450 0.000000
0.245268 0.870800 0.000000
0.281817 0.870146 0.000000
0.318563 0.869489 0.000000
0.355470 0.868828 0.000000
0.392501 0.868165 0.000000
0.429622 0.867501 0.000000
0.466796 0.866836 0.000000
0.503989 0.866170 0.000000
0.541163 0.865505 0.000000
0.578284 0.864840 0.000000
0.615316 0.864177 0.000000
0.652222 0.863517 0.000000
0.688968 0.862859 0.000000
0.725517 0.862205 0.000000
0.761834 0.861555 0.000000
0.797883 0.860910 0.000000
0.833629 0.860270 0.000000
0.869035 0.859636 0.000000
0.904066 0.859009 0.000000
0.938686 0.858390 0.000000
0.972859 0.857778 0.000000
1.000000 0.857175 0.000000
1.000000 0.856581 0.000000
0.000000 0.909704 0.000000
0.000000 0.909110 0.000000
0.000000 0.908507 0.000000
0.030894 0.907896 0.000000
0.065514 0.907276 0.000000
0.100545 0.906649 0.000000
0.135951 0.906015 0.000000
0.171697 0.905376 0.000000
0.207746 0.904730 0.000000
0.244063 0.904080 0.000000
0.280612 0.903426 0.000000
0.317358 0.902769 0.000000
0.354264 0.902108 0.000000
0.391296 0.901445 0.000000
0.428417 0.900781 0.000000
0.465591 0.900116 0.000000
0.502784 0.899450 0.000000
0.539958 0.898785 0.000000
0.577079 0.898120 0.000000
0.614110 0.897457 0.000000
0.651017 0.896797 0.000000
