3D/Production/Exports/Lighting/lax_grade_warm_miniature_32.cube
TITLE "Lax Attack warm miniature"
LUT_3D_SIZE 8
DOMAIN_MIN 0.000000 0.000000 0.000000
DOMAIN_MAX 0.903226 0.903226 0.903226
0.018000 0.010000 0.000000
0.150586 0.006135 0.000000
0.289596 0.002083 0.000000
0.432796 0.000000 0.000000
0.577952 0.000000 0.000000
0.722829 0.000000 0.000000
0.865191 0.000000 0.000000
1.000000 0.000000 0.000000
0.002998 0.134043 0.000000
0.135583 0.130178 0.000000
0.274594 0.126126 0.000000
0.417794 0.121952 0.000000
0.562950 0.117720 0.000000
0.707826 0.113497 0.000000
0.850189 0.109347 0.000000
0.987802 0.105336 0.000000
0.000000 0.264097 0.000000
0.119854 0.260232 0.000000
0.258865 0.256180 0.000000
0.402065 0.252006 0.000000
0.547221 0.247774 0.000000
0.692097 0.243551 0.000000
0.834460 0.239401 0.000000
0.973230 0.236032 0.000000
0.000000 0.398071 0.000000
0.103651 0.394206 0.000000
0.242661 0.390154 0.000000
0.386128 0.386128 0.000000
0.532748 0.382710 0.000000
0.679086 0.379299 0.000000
0.822885 0.375947 0.000000
0.961888 0.372707 0.000000
0.000000 0.534435 0.000000
0.089572 0.531313 0.000000
0.229985 0.528040 0.000000
0.374630 0.524669 0.000000
0.521251 0.521251 0.000000
0.667589 0.517840 0.000000
0.811388 0.514488 0.000000
0.951245 0.511590 0.000000
0.000000 0.672709 0.000000
0.078097 0.669587 0.000000
0.218510 0.666314 0.000000
0.363155 0.662943 0.000000
0.511448 0.660194 0.000000
0.659682 0.657541 0.000000
0.805343 0.654934 0.000000
0.946145 0.652414 0.000000
0.000000 0.808829 0.000000
0.069168 0.806401 0.000000
0.211399 0.803855 0.000000
0.357918 0.801233 0.000000
0.506437 0.798575 0.000000
0.654670 0.795922 0.000000
0.800331 0.793315 0.000000
0.941134 0.790795 0.000000
0.000000 0.942594 0.000000
0.064323 0.940166 0.000000
0.206555 0.937620 0.000000
0.353073 0.934998 0.000000
0.501592 0.932340 0.000000
0.649826 0.929686 0.000000
0.795487 0.927079 0.000000
0.936289 0.924559 0.000000
0.016486 0.008687 0.135985
0.149071 0.004822 0.132863
0.288082 0.000770 0.129590
0.431282 0.000000 0.126219
0.576438 0.000000 0.122801
0.721314 0.000000 0.119390
0.863676 0.000000 0.116038
1.000000 0.000000 0.112798
0.001483 0.132731 0.125483
0.134069 0.128866 0.122362
0.273079 0.124813 0.119089
0.416280 0.120639 0.115717
0.561435 0.116408 0.112300
0.706312 0.112184 0.108888
0.848674 0.108035 0.105537
0.986288 0.104023 0.102297
0.000000 0.262785 0.114473
0.118340 0.258920 0.111351
0.257350 0.254868 0.108078
0.400550 0.250693 0.104707
0.545706 0.246462 0.101289
0.690583 0.242239 0.097878
0.833167 0.238212 0.094526
0.972170 0.234972 0.091286
0.000000 0.396759 0.103131
0.102136 0.392894 0.100009
0.241147 0.388842 0.096736
0.385067 0.385067 0.093364
0.531688 0.381650 0.089947
0.678026 0.378239 0.086536
0.821825 0.374887 0.083184
0.960827 0.371647 0.079944
0.000000 0.533375 0.091633
0.088512 0.530253 0.088512
0.228925 0.526980 0.085239
0.373570 0.523608 0.081867
0.520191 0.520191 0.078450
0.666529 0.516780 0.075038
0.810328 0.513428 0.071687
0.950774 0.510765 0.067484
0.000000 0.671649 0.080158
0.077037 0.668527 0.077037
0.217450 0.665254 0.073764
0.362458 0.662028 0.070150
0.510977 0.659370 0.065467
0.659210 0.656717 0.060792
0.804872 0.654110 0.056199
0.945674 0.651589 0.051759
0.000000 0.808004 0.068081
0.068697 0.805576 0.063804
0.210928 0.803031 0.059318
0.357446 0.800408 0.054698
0.505966 0.797750 0.050015
0.654199 0.795097 0.045340
0.799860 0.792490 0.040747
0.940662 0.789970 0.036307
0.000000 0.941769 0.053145
0.063852 0.939341 0.048867
0.206084 0.936795 0.044382
0.352602 0.934173 0.039761
0.501121 0.931515 0.035078
0.649355 0.928862 0.030403
0.795016 0.926255 0.025810
0.935818 0.923735 0.021370
0.014898 0.007311 0.278560
0.147483 0.003446 0.275438
0.286494 0.000000 0.272165
0.429694 0.000000 0.268793
0.574850 0.000000 0.265376
0.719726 0.000000 0.261965
0.862089 0.000000 0.258613
0.999702 0.000000 0.255373
0.000000 0.131355 0.268058
0.132481 0.127490 0.264936
0.271491 0.123437 0.261663
0.414692 0.119263 0.258292
0.559848 0.115032 0.254874
0.704724 0.110808 0.251463
0.847086 0.106658 0.248111
0.984700 0.102647 0.244871
0.000000 0.261409 0.257048
0.116752 0.257544 0.253926
0.255762 0.253491 0.250653
0.398963 0.249317 0.247281
0.544118 0.245086 0.243864
0.688995 0.240862 0.240453
0.832056 0.237101 0.237101
0.971058 0.233861 0.233861
0.000000 0.395383 0.245705
0.100548 0.391518 0.242584
0.239559 0.387465 0.239311
0.383956 0.383956 0.235939
0.530576 0.380538 0.232521
0.676915 0.377127 0.229110
0.820714 0.373775 0.225758
0.959716 0.370535 0.222518
0.000000 0.532263 0.234208
0.087400 0.529141 0.231086
0.227813 0.525868 0.227813
0.372459 0.522497 0.224442
0.519079 0.519079 0.221024
0.665418 0.515668 0.217613
0.809478 0.512421 0.214087
0.950280 0.509901 0.209647
0.000000 0.670537 0.222733
0.075925 0.667416 0.219611
0.216338 0.664143 0.216338
0.361964 0.661163 0.212313
0.510483 0.658505 0.207630
0.658716 0.655852 0.202955
0.804378 0.653245 0.198362
0.945180 0.650725 0.193922
0.000000 0.807140 0.210244
0.068203 0.804712 0.205966
0.210434 0.802166 0.201481
0.356952 0.799544 0.196861
0.505472 0.796886 0.192177
0.653705 0.794233 0.187503
0.799366 0.791626 0.182910
0.940168 0.789106 0.178470
0.000000 0.940905 0.195307
0.063358 0.938477 0.191030
0.205590 0.935931 0.186544
0.352108 0.933309 0.181924
0.500627 0.930650 0.177241
0.648861 0.927997 0.172566
0.794522 0.925390 0.167973
0.935324 0.922870 0.163533
0.013262 0.005894 0.425432
0.145848 0.002029 0.422310
0.284858 0.000000 0.419037
0.428058 0.000000 0.415665
0.573214 0.000000 0.412248
0.718090 0.000000 0.408837
0.860453 0.000000 0.405485
0.998067 0.000000 0.402245
0.000000 0.129937 0.414930
0.130845 0.126072 0.411808
0.269856 0.122020 0.408535
0.413056 0.117845 0.405164
0.558212 0.113614 0.401746
0.703088 0.109391 0.398335
0.845451 0.105241 0.394983
0.983064 0.101229 0.391743
0.000000 0.259991 0.403920
0.115116 0.256126 0.400798
0.254126 0.252074 0.397525
0.397327 0.247899 0.394153
0.542483 0.243668 0.390736
0.687359 0.239445 0.387325
0.830911 0.235956 0.383973
0.969913 0.232716 0.380733
0.000000 0.393965 0.392577
0.098913 0.390100 0.389455
0.238166 0.386183 0.386183
0.382811 0.382811 0.382811
0.529431 0.379393 0.379393
0.675770 0.375982 0.375982
0.819569 0.372630 0.372630
0.958571 0.369390 0.369390
0.000000 0.531118 0.381080
0.086255 0.527996 0.377958
0.226668 0.524723 0.374685
0.371314 0.521352 0.371314
0.517934 0.517934 0.367896
0.664272 0.514523 0.364485
0.808969 0.511530 0.360535
0.949771 0.509010 0.356095
0.000000 0.669392 0.369605
0.074780 0.666271 0.366483
0.215193 0.662998 0.363210
0.361455 0.660273 0.358761
0.509974 0.657615 0.354078
0.658208 0.654961 0.349403
0.803869 0.652354 0.344810
0.944671 0.649834 0.340370
0.000000 0.806249 0.356692
0.067694 0.803821 0.352414
0.209925 0.801276 0.347929
0.356444 0.798653 0.343309
0.504963 0.795995 0.338625
0.653196 0.793342 0.333951
0.798857 0.790735 0.329358
0.939659 0.788215 0.324917
0.000000 0.940014 0.341755
0.062849 0.937586 0.337477
0.205081 0.935040 0.332992
0.351599 0.932418 0.328372
0.500118 0.929760 0.323689
0.648352 0.927107 0.319014
0.794013 0.924500 0.314421
0.934815 0.921980 0.309981
0.011604 0.004457 0.574309
0.144189 0.000592 0.571187
0.283200 0.000000 0.567914
0.426400 0.000000 0.564543
0.571556 0.000000 0.561125
0.716432 0.000000 0.557714
0.858795 0.000000 0.554362
0.996408 0.000000 0.551122
0.000000 0.128500 0.563807
0.129187 0.124635 0.560686
0.268198 0.120583 0.557413
0.411398 0.116408 0.554041
0.556554 0.112177 0.550624
0.701430 0.107954 0.547212
0.843793 0.103804 0.543861
0.981406 0.099792 0.540620
0.000000 0.258554 0.552797
0.113458 0.254689 0.549675
0.252468 0.250637 0.546402
0.395669 0.246462 0.543031
0.540825 0.242231 0.539613
0.685951 0.238147 0.536202
0.829750 0.234795 0.532850
0.968753 0.231555 0.529610
0.000000 0.392528 0.541455
0.097255 0.388663 0.538333
0.237005 0.385022 0.535060
0.381650 0.381650 0.531688
0.528271 0.378233 0.528271
0.674609 0.374822 0.524860
0.818408 0.371470 0.521508
0.957410 0.368230 0.518268
0.000000 0.529957 0.529957
0.085095 0.526836 0.526836
0.225508 0.523563 0.523563
0.370153 0.520191 0.520191
0.516774 0.516774 0.516774
0.663112 0.513362 0.513362
0.808453 0.510627 0.508982
0.949255 0.508107 0.504542
0.000000 0.668232 0.518482
0.073620 0.665110 0.515361
0.214421 0.661992 0.511829
0.360939 0.659370 0.507209
0.509458 0.656712 0.502525
0.657692 0.654059 0.497851
0.803353 0.651452 0.493257
0.944155 0.648932 0.488817
0.000000 0.805347 0.505140
0.067178 0.802919 0.500862
0.209409 0.800373 0.496377
0.355928 0.797751 0.491756
0.504447 0.795092 0.487073
0.652680 0.792439 0.482398
0.798341 0.789832 0.477805
0.939144 0.787312 0.473365
0.000000 0.939111 0.490203
0.062333 0.936683 0.485925
0.204565 0.934138 0.481440
0.351083 0.931515 0.476820
0.499602 0.928857 0.472136
0.647836 0.926204 0.467462
0.793497 0.923597 0.462868
0.934299 0.921077 0.458428
0.009949 0.003022 0.722900
0.142535 0.000000 0.719778
0.281545 0.000000 0.716505
0.424745 0.000000 0.713134
0.569901 0.000000 0.709716
0.714778 0.000000 0.706305
0.857140 0.000000 0.702953
0.994754 0.000000 0.699713
0.000000 0.127066 0.712398
0.127532 0.123201 0.709277
0.266543 0.119148 0.706004
0.409743 0.114974 0.702632
0.554899 0.110743 0.699214
0.699775 0.106519 0.695803
0.842138 0.102370 0.692452
0.979751 0.098358 0.689211
0.000000 0.257120 0.701388
0.111803 0.253255 0.698266
0.250813 0.249203 0.694993
0.394014 0.245028 0.691622
0.539170 0.240797 0.688204
0.684793 0.236988 0.684793
0.828592 0.233637 0.681441
0.967594 0.230396 0.678201
0.000000 0.391094 0.690046
0.095600 0.387229 0.686924
0.235846 0.383863 0.683651
0.380492 0.380492 0.680279
0.527112 0.377074 0.676862
0.673451 0.373663 0.673451
0.817250 0.370311 0.670099
0.956252 0.367071 0.666859
0.000000 0.528799 0.678548
0.083936 0.525677 0.675427
0.224349 0.522404 0.672154
0.368995 0.519033 0.668782
0.515615 0.515615 0.665364
0.662277 0.512333 0.661738
0.807938 0.509726 0.657144
0.948740 0.507206 0.652704
0.000000 0.667073 0.667073
0.072461 0.663952 0.663952
0.213906 0.661091 0.659991
0.360424 0.658469 0.655371
0.508944 0.655811 0.650687
0.657177 0.653158 0.646013
0.802838 0.650551 0.641419
0.943640 0.648031 0.636979
0.000000 0.804446 0.653302
0.066663 0.802018 0.649024
0.208894 0.799472 0.644539
0.355413 0.796850 0.639918
0.503932 0.794191 0.635235
0.652165 0.791538 0.630560
0.797826 0.788931 0.625967
0.938629 0.786411 0.621527
0.000000 0.938210 0.638365
0.061819 0.935782 0.634087
0.204050 0.933237 0.629602
0.350568 0.930614 0.624981
0.499088 0.927956 0.620298
0.647321 0.925303 0.615624
0.792982 0.922696 0.611030
0.933784 0.920176 0.606590
0.008323 0.001613 0.868912
0.140908 0.000000 0.865791
0.279919 0.000000 0.862518
0.423119 0.000000 0.859146
0.568275 0.000000 0.855729
0.713151 0.000000 0.852317
0.855514 0.000000 0.848966
0.993127 0.000000 0.845726
0.000000 0.125656 0.858411
0.125906 0.121791 0.855289
0.264917 0.117739 0.852016
0.408117 0.113565 0.848645
0.553273 0.109333 0.845227
0.698149 0.105110 0.841816
0.840511 0.100960 0.838464
0.978125 0.096949 0.835224
0.000000 0.255710 0.847400
0.110177 0.251845 0.844279
0.249187 0.247793 0.841006
0.392388 0.243619 0.837634
0.537543 0.239387 0.834217
0.683655 0.235850 0.830805
0.827454 0.232498 0.827454
0.966456 0.229258 0.824213
0.000000 0.389684 0.836058
0.094295 0.385998 0.832936
0.234708 0.382725 0.829663
0.379354 0.379354 0.826292
0.525974 0.375936 0.822874
0.672312 0.372525 0.819463
0.816111 0.369173 0.816111
0.955114 0.365933 0.812871
0.000000 0.527661 0.824561
0.082798 0.524539 0.821439
0.223211 0.521266 0.818166
0.367856 0.517894 0.814795
0.514477 0.514477 0.811377
0.661771 0.511448 0.807329
0.807432 0.508841 0.802735
0.948234 0.506321 0.798295
0.000000 0.665935 0.813086
0.071323 0.662813 0.809964
0.213400 0.660206 0.805582
0.359918 0.657584 0.800961
0.508438 0.654925 0.796278
0.656671 0.652272 0.791604
0.802332 0.649665 0.787010
0.943134 0.647145 0.782570
0.000000 0.803560 0.798893
0.066157 0.801132 0.794615
0.208388 0.798587 0.790130
0.354907 0.795964 0.785509
0.503426 0.793306 0.780826
0.651659 0.790653 0.776151
0.797321 0.788046 0.771558
0.938123 0.785526 0.767118
0.000000 0.937325 0.783956
0.061313 0.934897 0.779678
0.203544 0.932351 0.775193
0.350063 0.929729 0.770572
0.498582 0.927071 0.765889
0.646815 0.924418 0.761214
0.792476 0.921811 0.756621
0.933278 0.919291 0.752181
0.006751 0.000251 1.000000
0.139336 0.000000 1.000000
0.278347 0.000000 1.000000
0.421547 0.000000 1.000000
0.566703 0.000000 0.996871
0.711579 0.000000 0.993459
0.853942 0.000000 0.990108
0.991556 0.000000 0.986868
0.000000 0.124294 0.999553
0.124334 0.120429 0.996431
0.263345 0.116377 0.993158
0.406545 0.112202 0.989787
0.551701 0.107971 0.986369
0.696577 0.103748 0.982958
0.838940 0.099598 0.979606
0.976553 0.095586 0.976366
0.000000 0.254348 0.988542
0.108605 0.250483 0.985421
0.247615 0.246431 0.982148
0.390816 0.242256 0.978776
0.536216 0.238161 0.975359
0.682554 0.234750 0.971947
0.826353 0.231398 0.968596
0.965355 0.228158 0.965355
0.000000 0.388322 0.977200
0.093195 0.384898 0.974078
0.233608 0.381625 0.970805
0.378253 0.378253 0.967434
0.524874 0.374836 0.964016
0.671212 0.371424 0.960605
0.815011 0.368073 0.957253
0.954013 0.364832 0.954013
0.000000 0.526560 0.965703
0.081698 0.523439 0.962581
0.222111 0.520166 0.959308
0.366756 0.516794 0.955937
0.513376 0.513376 0.952519
0.661282 0.510592 0.948063
0.806943 0.507985 0.943470
0.947745 0.505465 0.939030
0.000000 0.664835 0.954228
0.070680 0.661896 0.950801
0.212911 0.659350 0.946316
0.359429 0.656728 0.941696
0.507949 0.654070 0.937012
0.656182 0.651417 0.932338
0.801843 0.648810 0.927745
0.942645 0.646289 0.923305
0.000000 0.802704 0.939627
0.065668 0.800276 0.935349
0.207899 0.797731 0.930864
0.354418 0.795108 0.926244
0.502937 0.792450 0.921560
0.651170 0.789797 0.916886
0.796831 0.787190 0.912292
0.937634 0.784670 0.907852
0.000000 0.936469 0.924690
0.060824 0.934041 0.920412
0.203055 0.931496 0.915927
0.349574 0.928873 0.911307
0.498093 0.926215 0.906623
0.646326 0.923562 0.901949
0.791987 0.920955 0.897356
0.932789 0.918435 0.892916
