3D/Production/Exports/Lighting/lax_grade_warm_miniature_32.cube
TITLE "Lax Attack warm miniature"
LUT_3D_SIZE 5
DOMAIN_MIN 0.000000 0.000000 0.000000
DOMAIN_MAX 0.903226 0.903226 0.903226
0.018000 0.010000 0.000000
0.254363 0.003110 0.000000
0.505270 0.000000 0.000000
0.758742 0.000000 0.000000
1.000000 0.000000 0.000000
0.000000 0.231135 0.000000
0.227618 0.224244 0.000000
0.478525 0.216930 0.000000
0.731997 0.209542 0.000000
0.976060 0.202427 0.000000
0.000000 0.465875 0.000000
0.200154 0.459499 0.000000
0.453592 0.453592 0.000000
0.709622 0.447624 0.000000
0.956147 0.441877 0.000000
0.000000 0.706986 0.000000
0.180077 0.701421 0.000000
0.435817 0.696434 0.000000
0.695163 0.691793 0.000000
0.944881 0.687323 0.000000
0.000000 0.942594 0.000000
0.170506 0.938265 0.000000
0.427226 0.933671 0.000000
0.686571 0.929029 0.000000
0.936289 0.924559 0.000000
0.015300 0.007660 0.242424
0.251663 0.000770 0.236858
0.502570 0.000000 0.230951
0.756042 0.000000 0.224983
1.000000 0.000000 0.219237
0.000000 0.228795 0.223702
0.224919 0.221905 0.218137
0.475825 0.214590 0.212230
0.729297 0.207202 0.206262
0.974131 0.200515 0.200515
0.000000 0.463535 0.203829
0.198264 0.457609 0.198264
0.451702 0.451702 0.192356
0.707732 0.445734 0.186388
0.954257 0.439987 0.180642
0.000000 0.705096 0.183752
0.178257 0.699559 0.178140
0.434977 0.694964 0.170045
0.694323 0.690323 0.161867
0.944041 0.685853 0.153992
0.000000 0.941124 0.159276
0.169666 0.936795 0.151649
0.426386 0.932201 0.143554
0.685732 0.927559 0.135376
0.935449 0.923089 0.127501
0.012434 0.005176 0.499763
0.248797 0.000000 0.494198
0.499704 0.000000 0.488290
0.753176 0.000000 0.482322
0.997239 0.000000 0.476576
0.000000 0.226311 0.481041
0.222053 0.219421 0.475476
0.472959 0.212107 0.469569
0.726431 0.204718 0.463601
0.972124 0.198509 0.457854
0.000000 0.461168 0.461168
0.196258 0.455603 0.455603
0.449696 0.449696 0.449696
0.705726 0.443728 0.443728
0.952251 0.437981 0.437981
0.000000 0.703090 0.441092
0.177366 0.697999 0.434737
0.434086 0.693404 0.426641
0.693432 0.688762 0.418463
0.943149 0.684293 0.410588
0.000000 0.939563 0.415872
0.168774 0.935235 0.408246
0.425494 0.930640 0.400150
0.684840 0.925998 0.391972
0.934558 0.921529 0.384097
0.009539 0.002667 0.759734
0.245902 0.000000 0.754169
0.496808 0.000000 0.748262
0.750281 0.000000 0.742294
0.994343 0.000000 0.736547
0.000000 0.223801 0.741013
0.219157 0.216911 0.735448
0.470063 0.209597 0.729540
0.723572 0.202229 0.723572
0.970098 0.196482 0.717826
0.000000 0.459141 0.721140
0.194231 0.453576 0.715575
0.447669 0.447669 0.709667
0.703699 0.441701 0.703699
0.951171 0.436333 0.697321
0.000000 0.701063 0.701063
0.176465 0.696422 0.693958
0.433185 0.691828 0.685862
0.692531 0.687186 0.677684
0.942248 0.682716 0.669809
0.000000 0.937987 0.675093
0.167873 0.933659 0.667467
0.424593 0.929064 0.659371
0.683939 0.924422 0.651193
0.933657 0.919953 0.643318
0.006751 0.000251 1.000000
0.243114 0.000000 1.000000
0.494020 0.000000 0.998582
0.747493 0.000000 0.992614
0.991556 0.000000 0.986868
0.000000 0.221385 0.991333
0.216369 0.214495 0.985768
0.467276 0.207181 0.979860
0.721621 0.200277 0.973893
0.968146 0.194531 0.968146
0.000000 0.457190 0.971460
0.192279 0.451625 0.965895
0.445717 0.445717 0.959987
0.701748 0.439749 0.954019
0.950304 0.434815 0.946919
0.000000 0.699233 0.951181
0.175598 0.694904 0.943555
0.432318 0.690310 0.935459
0.691663 0.685668 0.927281
0.941381 0.681199 0.919406
0.000000 0.936469 0.924690
0.167006 0.932141 0.917064
0.423726 0.927546 0.908969
0.683072 0.922904 0.900790
0.932789 0.918435 0.892916
